X:1
T:English Suite I Gigue
T:BWV 806
T:J. S. Bach
%%score { 1 | ( 2 3 ) }
L:1/8
M:6/8
K:A
V:1 treble nm="Harp"
V:2 bass 
V:3 bass 
V:1
 e | ag/f/e/d/ c/d/e/4d/4e/4d/4e/4d/4c/4d/4 | ed/c/B/A/ G/A/B/4A/4B/4A/4B/4A/4G/4A/4 | %3
 B/c/d/4c/4d/4c/4d/4c/4B/4c/4 d>e{d}c- | c/d/c/4B/4c/4B/4c/4B/4e/ c/B/A/B/c/d/ | %5
 e/d/c/d/e/f/ =g/f/e/f/g/a/ | f/e/d/e/f/g/ a/g/f/g/a/b/ | g/f/e/f/g/a/ b/a/g/f/e/d/ | %8
 c/^d/e/f/g/e/ a/g/f/e/d/c/ | B/c/^d/e/f/d/ g/f/e/d/c/B/ | A/B/c/^d/e/c/ f/e/d/c/B/A/ | %11
 G/e/^d/c/B/A/ G/A/4B/4 F>E | E/F/G/A/B/G/ c/B/A/G/F/E/ | ^D/E/F/G/A/F/ B/A/G/F/E/D/ | %14
 C/^D/E/F/G/E/ A/G/F/E/D/C/ | B,/A/G/F/E/^D/ E/F/G/4F/4E/4F/4G/4F/4E/ | E3- E2 e | %17
 ag/f/e/d/ c/d/e/4d/4e/4d/4e/4d/4c/4d/4 | ed/c/B/A/ G/A/B/4A/4B/4A/4B/4A/4G/4A/4 | %19
 B/c/d/4c/4d/4c/4d/4c/4B/4c/4 d>e{d}c- | c/d/c/4B/4c/4B/4c/4B/4e/ c/B/A/B/c/d/ | %21
 e/d/c/d/e/f/ =g/f/e/f/g/a/ | f/e/d/e/f/g/ a/g/f/g/a/b/ | g/f/e/f/g/a/ b/a/g/f/e/d/ | %24
 c/^d/e/f/g/e/ a/g/f/e/d/c/ | B/c/^d/e/f/d/ g/f/e/d/c/B/ | A/B/c/^d/e/c/ f/e/d/c/B/A/ | %27
 G/e/^d/c/B/A/ G/A/4B/4 F>E | E/F/G/A/B/G/ c/B/A/G/F/E/ | ^D/E/F/G/A/F/ B/A/G/F/E/D/ | %30
 C/^D/E/F/G/E/ A/G/F/E/D/C/ | B,/A/G/F/E/^D/ E/F/G/4F/4E/4F/4G/4F/4E/ | E3- E2 B | %33
 EF/G/A/B/ A/B/c/4B/4c/4B/4c/4B/4A/4B/4 | c/d/c/B/A/=G/ F/f/e/d/c/B/ | %35
 ^A/B/c/4B/4c/4B/4c/4B/4A/4B/4 c/d/e/4d/4e/4d/4e/4d/4c/4d/4 | e>f{e}d- d/e/d/4c/4d/4c/4d/4c/4f/ | %37
 ^d/B/c/d/e/f/ e/f/g/4f/4g/4f/4g/4f/4e/4f/4 | =g/a/g/f/e/d/ =c/b/a/g/f/e/ | %39
 ^d/e/f/4e/4f/4e/4f/4e/4d/4e/4 f/=g/a/4g/4a/4g/4a/4g/4f/4g/4 | a>b{a}=g- g/a/g/4f/4g/4f/4g/4f/4b/ | %41
 g/a/g/f/e/d/ c/B/A/B/c/d/ | e/d/c/B/A/=G/ F/E/D/E/F/G/ | A/D/ d2- d/B/G/B/E- | %44
 E/A/ c2- c/A/F/A/D/c/ | B/G/E/G/C/B/ A/F/D/F/B,/A/ | G/E/F/G/A/B/ A/B/c/4B/4c/4B/4c/4B/4A/4B/4 | %47
 c/A/B/c/d/e/ d/e/f/4e/4f/4e/4f/4e/4d/4e/4 | f/d/e/f/=g/a/ ^g/a/b/4a/4b/4a/4b/4a/4g/4a/4 | %49
 b/a/g/f/e/d/ c/B/A/B/c/d/ | e/d/c/B/A/=G/ F/e/d/c/B/A/ | %51
 G/E/F/G/A/G/ A/B/A/4G/4A/4G/4A/4G/4F/4G/4 | A/B/c/d/e/c/ f/e/d/c/B/A/ | %53
 G/A/B/c/d/B/ e/d/c/B/A/G/ | F/G/A/B/c/A/ d/c/B/A/G/F/ | E/d/c/B/A/G/ A/B/c/4B/4c/4B/4c/4B/4A/ | %56
 A3- A2 B | EF/G/A/B/ A/B/c/4B/4c/4B/4c/4B/4A/4B/4 | c/d/c/B/A/=G/ F/f/e/d/c/B/ | %59
 ^A/B/c/4B/4c/4B/4c/4B/4A/4B/4 c/d/e/4d/4e/4d/4e/4d/4c/4d/4 | e>f{e}d- d/e/d/4c/4d/4c/4d/4c/4f/ | %61
 ^d/B/c/d/e/f/ e/f/g/4f/4g/4f/4g/4f/4e/4f/4 | =g/a/g/f/e/d/ =c/b/a/g/f/e/ | %63
 ^d/e/f/4e/4f/4e/4f/4e/4d/4e/4 f/=g/a/4g/4a/4g/4a/4g/4f/4g/4 | a>b{a}=g- g/a/g/4f/4g/4f/4g/4f/4b/ | %65
 g/a/g/f/e/d/ c/B/A/B/c/d/ | e/d/c/B/A/=G/ F/E/D/E/F/G/ | A/D/ d2- d/B/G/B/E- | %68
 E/A/ c2- c/A/F/A/D/c/ | B/G/E/G/C/B/ A/F/D/F/B,/A/ | G/E/F/G/A/B/ A/B/c/4B/4c/4B/4c/4B/4A/4B/4 | %71
 c/A/B/c/d/e/ d/e/f/4e/4f/4e/4f/4e/4d/4e/4 | f/d/e/f/=g/a/ ^g/a/b/4a/4b/4a/4b/4a/4g/4a/4 | %73
 b/a/g/f/e/d/ c/B/A/B/c/d/ | e/d/c/B/A/=G/ F/e/d/c/B/A/ | %75
 G/E/F/G/A/G/ A/B/A/4G/4A/4G/4A/4G/4F/4G/4 | A/B/c/d/e/c/ f/e/d/c/B/A/ | %77
 G/A/B/c/d/B/ e/d/c/B/A/G/ | F/G/A/B/c/A/ d/c/B/A/G/F/ | E/d/c/B/A/G/ A/B/c/4B/4c/4B/4c/4B/4A/ | %80
 A3- A2 z |] %81
V:2
 z | z2 E AG/F/E/D/ | C/D/E/4D/4E/4D/4E/4D/4C/4D/4 ED/C/B,/A,/ | %3
 G,/A,/B,/4A,/4B,/4A,/4B,/4A,/4G,/4A,/4 B,/A,/G,/F,/A,/G,/ | F,/D,/E,E,,/E,/ A,G,/F,/E,/D,/ | %5
 C,/D,/E,/4D,/4E,/4D,/4E,/4D,/4C,/4D,/4 E,/A,,/A,/=G,/F,/E,/ | %6
 D,/E,/F,/4E,/4F,/4E,/4F,/4E,/4D,/4E,/4 F,/B,,/B,/A,/G,/F,/ | %7
 E,/F,/G,/4F,/4G,/4F,/4G,/4F,/4E,/4F,/4 G,/F,/E,/F,/G,/E,/ | A,/B,/C/B,/A,/G,/ F,/G,/A,/G,/A,/F,/ | %9
 G,/A,/B,/A,/G,/F,/ E,/F,/G,/F,/G,/E,/ | F,/G,/A,/G,/F,/E,/ ^D,/E,/F,/E,/F,/D,/ | %11
 E,/F,/G,/4F,/4E,/4F,/4G,/A,/ B,/4A,/4G,/4A,/4 B,B,, | %12
 E,,E,/D,/C,/B,,/ A,,B,,/4A,,/4B,,/4A,,/4B,,/4A,,/4G,,/4A,,/4 | %13
 B,,/C,/^D,/C,/B,,/A,,/ G,,A,,/4G,,/4A,,/4G,,/4A,,/4G,,/4F,,/4G,,/4 | %14
 A,,/B,,/C,/B,,/A,,/G,,/ F,,/G,,/A,,/G,,/F,,/E,,/ | ^D,,B,,C, A,,B,,B,,, | E,,G,,B,, E,2 z | %17
 z2 E AG/F/E/D/ | C/D/E/4D/4E/4D/4E/4D/4C/4D/4 ED/C/B,/A,/ | %19
 G,/A,/B,/4A,/4B,/4A,/4B,/4A,/4G,/4A,/4 B,/A,/G,/F,/A,/G,/ | F,/D,/E,E,,/E,/ A,G,/F,/E,/D,/ | %21
 C,/D,/E,/4D,/4E,/4D,/4E,/4D,/4C,/4D,/4 E,/A,,/A,/=G,/F,/E,/ | %22
 D,/E,/F,/4E,/4F,/4E,/4F,/4E,/4D,/4E,/4 F,/B,,/B,/A,/G,/F,/ | %23
 E,/F,/G,/4F,/4G,/4F,/4G,/4F,/4E,/4F,/4 G,/F,/E,/F,/G,/E,/ | A,/B,/C/B,/A,/G,/ F,/G,/A,/G,/A,/F,/ | %25
 G,/A,/B,/A,/G,/F,/ E,/F,/G,/F,/G,/E,/ | F,/G,/A,/G,/F,/E,/ ^D,/E,/F,/E,/F,/D,/ | %27
 E,/F,/G,/4F,/4E,/4F,/4G,/A,/ B,/4A,/4G,/4A,/4 B,B,, | %28
 E,,E,/D,/C,/B,,/ A,,B,,/4A,,/4B,,/4A,,/4B,,/4A,,/4G,,/4A,,/4 | %29
 B,,/C,/^D,/C,/B,,/A,,/ G,,A,,/4G,,/4A,,/4G,,/4A,,/4G,,/4F,,/4G,,/4 | %30
 A,,/B,,/C,/B,,/A,,/G,,/ F,,/G,,/A,,/G,,/F,,/E,,/ | ^D,,B,,C, A,,B,,B,,, | E,,G,,B,, E,2 z | %33
 z z4 E, | A,,B,,/C,/D,/E,/ D,/E,/F,/4E,/4F,/4E,/4F,/4E,/4D,/4E,/4 | %35
 F,E,/D,/C,/B,,/ ^A,,/B,,/C,/4B,,/4C,/4B,,/4C,/4B,,/4A,,/4B,,/4 | %36
 C,/F,,/G,,/^A,,/B,,/C,/ D,/B,,/F,F,, | B,,2 z z2 B, | %38
 E,F,/=G,/A,/B,/ A,/B,/C/4B,/4C/4B,/4C/4B,/4A,/4B,/4 | %39
 =C/B,/A,/=G,/F,/E,/ ^D,/E,/F,/4E,/4F,/4E,/4F,/4E,/4D,/4E,/4 | F,/B,,/C,/^D,/E,/F,/ =G,/E,/B,B,, | %41
 E,,F,,/G,,/A,,/B,,/ A,,/B,,/C,/4B,,/4C,/4B,,/4C,/4B,,/4A,,/4B,,/4 | %42
 C,/A,,/B,,/C,/D,/E,/ D,/E,/F,/4E,/4F,/4E,/4F,/4E,/4D,/4E,/4 | F,>D,B,,/D,/ G,,>E,G,/E,/ | %44
 A,>E,A,,/C,/ D,,>F,,G,,- | G,,/B,,<C,E,/ F,/A,/B,/F,/D,/B,,/ | %46
 E,/A,/G,/F,/E,/D,/ C,/D,/E,/D,/C,/B,,/ | A,,/D,/C,/B,,/A,,/=G,,/ F,,/G,,/A,,/G,,/F,,/E,,/ | %48
 D,,/F,,/=G,,/A,,/B,,/C,/ D,/E,/D,/C,/B,,/A,,/ | %49
 G,,/E,,/F,,/G,,/A,,/B,,/ A,,/B,,/C,/4B,,/4C,/4B,,/4C,/4B,,/4A,,/4B,,/4 | %50
 C,/B,,/A,,/B,,/C,/A,,/ D,/C,/B,,/C,/D,/B,,/ | E,/F,/E,/D,/C,/B,,/ C,/D,/E,E,, | %52
 A,,A,/G,/F,/E,/ D,E,/4D,/4E,/4D,/4E,/4D,/4C,/4D,/4 | %53
 E,/F,/G,/F,/E,/D,/ C,D,/4C,/4D,/4C,/4D,/4C,/4B,,/4C,/4 | %54
 D,/E,/F,/E,/D,/C,/ B,,/C,/D,/C,/B,,/A,,/ | G,,E,F, D,E,E,, | A,,,C,,E,, A,,2 z | z z4 E, | %58
 A,,B,,/C,/D,/E,/ D,/E,/F,/4E,/4F,/4E,/4F,/4E,/4D,/4E,/4 | %59
 F,E,/D,/C,/B,,/ ^A,,/B,,/C,/4B,,/4C,/4B,,/4C,/4B,,/4A,,/4B,,/4 | %60
 C,/F,,/G,,/^A,,/B,,/C,/ D,/B,,/F,F,, | B,,2 z z2 B, | %62
 E,F,/=G,/A,/B,/ A,/B,/C/4B,/4C/4B,/4C/4B,/4A,/4B,/4 | %63
 =C/B,/A,/=G,/F,/E,/ ^D,/E,/F,/4E,/4F,/4E,/4F,/4E,/4D,/4E,/4 | F,/B,,/C,/^D,/E,/F,/ =G,/E,/B,B,, | %65
 E,,F,,/G,,/A,,/B,,/ A,,/B,,/C,/4B,,/4C,/4B,,/4C,/4B,,/4A,,/4B,,/4 | %66
 C,/A,,/B,,/C,/D,/E,/ D,/E,/F,/4E,/4F,/4E,/4F,/4E,/4D,/4E,/4 | F,>D,B,,/D,/ G,,>E,G,/E,/ | %68
 A,>E,A,,/C,/ D,,>F,,G,,- | G,,/B,,<C,E,/ F,/A,/B,/F,/D,/B,,/ | %70
 E,/A,/G,/F,/E,/D,/ C,/D,/E,/D,/C,/B,,/ | A,,/D,/C,/B,,/A,,/=G,,/ F,,/G,,/A,,/G,,/F,,/E,,/ | %72
 D,,/F,,/=G,,/A,,/B,,/C,/ D,/E,/D,/C,/B,,/A,,/ | %73
 G,,/E,,/F,,/G,,/A,,/B,,/ A,,/B,,/C,/4B,,/4C,/4B,,/4C,/4B,,/4A,,/4B,,/4 | %74
 C,/B,,/A,,/B,,/C,/A,,/ D,/C,/B,,/C,/D,/B,,/ | E,/F,/E,/D,/C,/B,,/ C,/D,/E,E,, | %76
 A,,A,/G,/F,/E,/ D,E,/4D,/4E,/4D,/4E,/4D,/4C,/4D,/4 | %77
 E,/F,/G,/F,/E,/D,/ C,D,/4C,/4D,/4C,/4D,/4C,/4B,,/4C,/4 | %78
 D,/E,/F,/E,/D,/C,/ B,,/C,/D,/C,/B,,/A,,/ | G,,E,F, D,E,E,, | A,,,C,,E,, A,,2 z |] %81
V:3
 x | x6 | x6 | x6 | x6 | x6 | x6 | x6 | x6 | x6 | x6 | x6 | x6 | x6 | x6 | x6 | E,,3- E,,2 z | x6 | %18
 x6 | x6 | x6 | x6 | x6 | x6 | x6 | x6 | x6 | x6 | x6 | x6 | x6 | x6 | E,,3- E,,2 x | x6 | x6 | %35
 x6 | x6 | x6 | x6 | x6 | x6 | x6 | x6 | x6 | x6 | x6 | x6 | x6 | x6 | x6 | x6 | x6 | x6 | x6 | %54
 x6 | x6 | A,,,3- A,,,2 z | x6 | x6 | x6 | x6 | x6 | x6 | x6 | x6 | x6 | x6 | x6 | x6 | x6 | x6 | %71
 x6 | x6 | x6 | x6 | x6 | x6 | x6 | x6 | x6 | A,,,3- A,,,2 x |] %81

